X:1
T: Major Stewart
C:
R:Reel
Q: 232
K:G
M:4/4
L:1/8
|:G2 g2 a1/2g1/2f g2|dg Bg dg Bg|G2 g2 a1/2g1/2f g2|fa AB cB cA|
G2 g2 a1/2g1/2f g2|dg Bg dg Bg|G2 g2 a1/2g1/2f g2|fa AB cB cA|
ga eg dg B2|ga eg fg af|ge fa eg dg|ca Bg A2 d2|
ga eg dg B2|ga eg fg af|ga eg dg B2|AB cd ed g2:|
